X: 237
T: Irish Jack Doherty's HP
N: 092180
C: BB 11/06
L: 1/8
M: C|
R: hornpipe
Q: 330
K: D
AG | "D"FA"Em"GE "D"D2 ed | "A"ce"G"dB "A7"A2 AG |\
"D"FAdf "G"gfeg | "D"f2 a2 "A"e2 AG |
"D"FA"Em"GE "D"D2 ed | "A"ce"G"dB "A7"A2 AG |\
"D"FGAF "A7"EFGE | "D"F2 D2 D2 :|
AG | "D"FAde f2 ed | "C"=cdef g2 fg |\
"D"afed "Bm"Bcdf | "G"g2 "D"f2 "A"e2 Ac |
"D"dcde f2 ed | "C"=ceaf g2 fg  |\
"D"a^gaf "A7"ef=ge | "D"f2 d2 d2 :|
%%%%%%%%%%%%%%%%%%%%%%%
